X: 41799
T: Very Man, The
R: reel
M: 4/4
K: Gmajor
|:A "cran"~D3 {A}DEFG|AB=cAG2 FG|Ad^cd AGFD|EdcAG3 B|
A "cran"~D3 {A}DEFG|AB=cAG2 (3(EFG)|"roll"~A3 B AGEG|A z GE D2 z B:|
|:A.d.de fded|cBcd cAGD|(3EFG AB cAGD|EdcA G3 B|
A.d.de (3(.g.f.d) {g}ed|"roll"~c3 d cAGD|E2 cBcA (3EFG|A zGE D4:|

